X:2124 
T:Ta Cashen ersooyl dys yn 'aarkey
C:Tom Kermode, Bradda.
O:Isle of Man
C:Traditional
Z:Clague collection
B:Kiaull Vannin #124 
L:1/4
M:6/8  
K:D 
F|BBc|dcB|cAF|BBd|cAc|e2f|BBc|dcB|cAe|fef|ddc|B2||

